style-guide/assets/wds-icons-numbered-list-tiny.svg

<svg xmlns="http://www.w3.org/2000/svg" xmlns:xlink="http://www.w3.org/1999/xlink" width="12" height="12" viewBox="0 0 12 12">
  <defs>
    <path id="numbered-list-a" d="M7,3.00061111 C6.447,3.00061111 6,2.55261111 6,2.00061111 C6,1.44861111 6.447,1.00061111 7,1.00061111 L10,1.00061111 C10.553,1.00061111 11,1.44861111 11,2.00061111 C11,2.55261111 10.553,3.00061111 10,3.00061111 L7,3.00061111 Z M10,5.00061111 C10.553,5.00061111 11,5.44861111 11,6.00061111 C11,6.55261111 10.553,7.00061111 10,7.00061111 L7,7.00061111 C6.447,7.00061111 6,6.55261111 6,6.00061111 C6,5.44861111 6.447,5.00061111 7,5.00061111 L10,5.00061111 Z M10,9.00061111 C10.553,9.00061111 11,9.44861111 11,10.0006111 C11,10.5526111 10.553,11.0006111 10,11.0006111 L7,11.0006111 C6.447,11.0006111 6,10.5526111 6,10.0006111 C6,9.44861111 6.447,9.00061111 7,9.00061111 L10,9.00061111 Z M1.8535,2.85411111 C1.6585,3.04911111 1.3415,3.04911111 1.1465,2.85411111 C0.9515,2.65911111 0.9515,2.34211111 1.1465,2.14711111 L2.1465,1.14711111 C2.2905,1.00311111 2.5055,0.960111111 2.6915,1.03911111 C2.8775,1.11611111 2.9995,1.29811111 2.9995,1.50011111 L2.9995,4.50011111 C2.9995,4.77711111 2.7765,5.00011111 2.4995,5.00011111 C2.2235,5.00011111 1.9995,4.77711111 1.9995,4.50011111 L1.9995,2.70811111 L1.8535,2.85411111 Z M4,8.50061111 C4,8.63361111 3.947,8.76061111 3.854,8.85461111 L2.707,10.0006111 L3.5,10.0006111 C3.776,10.0006111 4,10.2246111 4,10.5006111 C4,10.7766111 3.776,11.0006111 3.5,11.0006111 L1.5,11.0006111 C1.298,11.0006111 1.115,10.8786111 1.038,10.6916111 C0.961,10.5056111 1.004,10.2906111 1.146,10.1466111 L2.969,8.32561111 C2.897,8.13661111 2.714,8.00061111 2.5,8.00061111 C2.225,8.00061111 2,8.22461111 2,8.50061111 C2,8.77661111 1.776,9.00061111 1.5,9.00061111 C1.224,9.00061111 1,8.77661111 1,8.50061111 C1,7.67361111 1.673,7.00061111 2.5,7.00061111 C3.327,7.00061111 4,7.67361111 4,8.50061111 Z"/>
  </defs>
  <use fill-rule="evenodd" xlink:href="#numbered-list-a"/>
</svg>

<svg xmlns="http://www.w3.org/2000/svg" xmlns:xlink="http://www.w3.org/1999/xlink" viewBox="0 0 12 12">
  <defs>
    <path id="numbered-list-a" d="M7 3a1 1 0 1 1 0-2h3a1 1 0 1 1 0 2H7zm3 2a1 1 0 1 1 0 2H7a1 1 0 1 1 0-2h3zm0 4a1 1 0 1 1 0 2H7a1 1 0 1 1 0-2h3zM1.854 2.855a.5.5 0 0 1-.708-.707l1-1A.5.5 0 1 1 3 1.5v3a.499.499 0 1 1-1 0V2.708l-.146.146zM4 8.501c0 .133-.053.26-.146.354L2.707 10H3.5a.5.5 0 0 1 0 1h-2a.5.5 0 0 1-.354-.854l1.823-1.821A.5.5 0 0 0 2 8.5a.5.5 0 0 1-1 0C1 7.674 1.673 7 2.5 7S4 7.674 4 8.5z"/>
  </defs>
  <use fill-rule="evenodd" xlink:href="#numbered-list-a"/>
</svg>
